X:1
T:If I Wait
T:If I Wait
T:Marvin N. Hardiman
T:Katharyn Bacon, 1913
T:Public Domain Courtesy of the Cyber Hymnal™
T:Public Domain Courtesy of the Cyber Hymnal™
C:Marvin N. Hardiman
Z:Public Domain
Z:Courtesy of the Cyber Hymnal™
%%score ( 1 2 ) ( 3 4 )
L:1/8
Q:1/4=90
M:4/4
K:G
V:1 treble 
V:2 treble 
V:3 bass 
V:4 bass 
V:1
 [DG][DA] | [GB][GB][GB][GB] [GB]2 G[GB] | [Gd][Ge][Gd][Ge] [Gd]2 G[FA] | %3
w: 1.~Hark! the|Sav- ior’s voice I hear, Call- ing|me from de- serts drear, He no|
w: 2.~End- less|life He of- fers me, Sweet sal-|va- tion full and free, But I|
w: 3.~All to|Christ I now re- sign, Yield- ing|to His will di- vine, I may|
 [GB][GB][GB][GB] [GB]2 G[GB] | [FA]6 [DG][DA] | [GB][GB][GB][GB] [GB]2 G[GB] | %6
w: more may be so near, if I|wait; Why should|I to- day re- fuse, Or His|
w: may not ran- somed be, if I|wait; Trust- ing|in His right- eous- ness, All my|
w: pass the bor- der line, if I|wait; The ac-|cept- ed time’s to- day, And I|
 [Gd][Ge][Gd][Ge] [Gd]2 [DG][DA] | [GB][GB][Ac][Ac] [GB]2 [FB][FA] | [DG]6 |:"^Refrain" G[GB] | %10
w: mer- cies fail to choose? Naught to|gain, but all to lose, if I|wait.|If I|
w: sins I will con- fess, Lest it|be too late to bless, if I|wait.|If I|
w: now His voice o- bey, Death may|bear my soul a- way, if I|wait.||
 d4- [Gd][GB][Gd][GB] |1 [Fc]([Fc-] c4) G[GB] | d4- [Gd][Gd][Ge][Gd] | A4- [FA]2 :|2 [Ge][Gd] || %15
w: wait to seek God’s fa-|* vor, * Lost may|be my soul for aye;|* Help|* me|
w: wait but oh! my Sav-|* ior, * * *||||
w: |||||
 B4- [GB][Ac] [GB]>[FA] | G4- [DG]2 x |] %17
w: yield to Thee to- day!||
w: ||
w: ||
V:2
 x2 | x6 G x | x6 G x | x6 G x | x8 | x6 G x | x8 | x8 | x6 |: G x | G G F F x4 |1 x2 (FF FF)G x | %12
 G G F F x4 | FFEE x2 :|2 x2 || G G G G x4 | GFED x3 |] %17
V:3
 [G,B,][G,C] | [G,D][G,D][G,D][G,D] [G,D]2 [G,B,][G,D] | %2
w: ~ ~|~ ~ ~ ~ ~ ~ ~|
 [G,B,][G,B,][G,B,][G,C] [G,B,]2 [B,D][A,D] | [G,D][G,D][G,D][G,D] [G,D]2 [B,D][G,D] | %4
w: ~ ~ ~ ~ ~ ~ ~|~ ~ ~ ~ ~ ~ ~|
 [D,D]6 [G,B,][G,C] | [G,D][G,D][G,D][G,D] [G,D]2 [G,B,][G,D] | %6
w: ~ ~ ~|~ ~ ~ ~ ~ ~ ~|
 [G,B,][G,B,][G,B,][G,C] [G,B,]2 [G,B,][G,C] | [G,D][G,D][C,E][C,E] [D,D]2 [D,D][D,C] | [G,,B,]6 |: %9
w: ~ ~ ~ ~ ~ ~ ~|~ ~ ~ ~ ~ ~ ~|~|
 [G,B,][G,D] | [G,B,]B,[D,A,][D,A,] [G,B,][G,D][B,D][G,D] |1 %11
w: ~ ~|~ to seek God’s fa- vor, ~ If|
 [D,D][D,A,][D,A,][D,A,] [D,A,][D,A,][G,B,][G,D] | %12
w: I wait to seek God’s fa- vor, ~|
 [G,B,][G,B,][D,A,][D,A,] [G,B,][G,B,][E,B,][B,,D] | [D,D][D,D][A,,^C][A,,C] [D,D]2 :|2 %14
w: ~ yes, lost may be ~ ~ ~|~ my soul for aye;|
 [G,B,][G,B,] || [G,D][G,D][E,E][E,E] [G,D][C,E] [D,D]>[D,C] | B, [G,,B,]2 x4 |] %17
w: ~ ~|~ oh! help me yield! ~ ~ ~|~ Thee|
V:4
 x2 | x8 | x8 | x8 | x8 | x8 | x8 | x8 | x6 |: x2 | x8 |1 x8 | x8 | x6 :|2 x2 || x8 | G,,4 DCB, |] %17

